X:31
T:Memories of Bielfield
R:Waltz
C:Jim McGraw
O:Co. Fermanagh, Ireland
S:http://www.cranfordpub.com/recordings/mcgraw.htm
D:Melodious Accord, Jim McGraw
Z:psc
H:This tune was written in the same year after an enjoyable week-long trip organized by Fermanagh District Council to Enniskillen's twin town in Germany.
L:1/8
Q:288
M:3/4
K:D
D/D/D|DF FD AF|dA fA aA|g3 a gf|e3 A AB|
c2 B2 BA|G2 EF G2|F2 D2 B,2|A,3 D DD|
DF FD AF|dA fA aA|g3 a gf|e3 A AB|
c2 B2 BA|(3(GFE) CD EC|D/D/D FD AF|d4:|
|:A/A/A|AB cd ec|dA Fd AF|B2 A2 G2|A4 F2|
GB B2 Bd|AF DF AF|EA ^GA Bc|A3 F (3(GFE)|
DF FF AF|da fd af|g3 f eA|c3 B AB|
c2 B2 AF|(3(GFE) CD EC|D/D/D FD AF|d4:|
% if none of this makes sense, go to http://www.cranfordpub.com/tunes/abcs
